web/abstruse/src/assets/images/avatars/avatar_11.svg

<svg width="260px" height="280px" viewBox="0 0 260 280" version="1.1" xmlns="http://www.w3.org/2000/svg" xmlns:xlink="http://www.w3.org/1999/xlink">
    <!-- Generator: Sketch 50.2 (55047) - http://www.bohemiancoding.com/sketch -->
    <desc>Created with Sketch.</desc>
    <defs>
        <path d="M124,144.610951 L124,163 L128,163 C167.764502,163 200,195.235498 200,235 L200,244 L0,244 L0,235 C-4.86974701e-15,195.235498 32.235498,163 72,163 L76,163 L76,144.610951 C58.7626345,136.422372 46.3722246,119.687011 44.3051388,99.8812385 C38.4803105,99.0577866 34,94.0521096 34,88 L34,74 C34,68.0540074 38.3245733,63.1180731 44,62.1659169 L44,56 C44,25.072054 69.072054,5.68137151e-15 100,0 C130.927946,-5.68137151e-15 156,25.072054 156,56 L156,62.1659169 C161.675427,63.1180731 166,68.0540074 166,74 L166,88 C166,94.0521096 161.51969,99.0577866 155.694861,99.8812385 C153.627775,119.687011 141.237365,136.422372 124,144.610951 Z" id="path-1"></path>
        <path d="M108,13.0708856 L108,32 C108,45.254834 118.745166,56 132,56 C145.254834,56 156,45.254834 156,32 L156,13.0708856 C173.918699,15.075938 187.720158,20.5518341 187.995797,34.6449676 C213.853567,45.5680933 232,71.1646257 232,100.999485 L232,110 L32,110 L32,100.999485 C32,71.1646257 50.1464329,45.5680933 76.0042027,34.6449832 C76.2798424,20.5518341 90.0813006,15.075938 108,13.0708856 Z" id="path-3"></path>
        <rect id="path-5" x="0" y="0" width="264" height="280"></rect>
        <path d="M80.0203173,73.8104172 C78.0626651,79.5136273 77,85.6327143 77,92 L77,98.1659169 C71.3245733,99.1180731 67,104.054007 67,110 L67,123 C67,129.018625 71.4308707,134.002364 77.2085808,134.867187 C78.9518066,155.114792 91.4692178,172.282984 109,180.610951 L109,191.55498 C104.295298,193.764912 99.0418843,195 93.5,195 C84.6936661,195 76.615743,191.881303 70.3104439,186.688122 C68.4019201,186.894245 66.4633102,187 64.5,187 C43.405572,187 25.1625605,174.791635 16.4510993,157.055039 C8.9342791,151.923647 4,143.288055 4,133.5 C4,131.385405 4.23029535,129.324599 4.66717333,127.341294 C2.29639351,121.011656 1,114.157223 1,107 C1,94.2436789 5.11811695,82.4491956 12.0974246,72.8734763 C12.0329017,72.0908558 12,71.2992702 12,70.5 C12,59.2025056 18.5734777,49.4403292 28.1042855,44.8296184 C36.5367477,26.7016558 54.5576512,13.9359054 75.6500672,13.049296 C80.7818839,8.06730831 87.7827378,5 95.5,5 C97.8269611,5 100.088787,5.27887473 102.253881,5.80502563 C111.775927,2.05800249 122.147627,0 133,0 C143.346018,0 153.255173,1.87043661 162.407758,5.29160393 C163.744126,5.09944416 165.11045,5 166.5,5 C174.217262,5 181.218116,8.06730831 186.349933,13.049296 C207.442349,13.9359054 225.463252,26.7016558 233.895715,44.8296184 C243.426522,49.4403292 250,59.2025056 250,70.5 C250,71.2992702 249.967098,72.0908558 249.902575,72.8734763 C256.881883,82.4491956 261,94.2436789 261,107 C261,114.157223 259.703606,121.011656 257.332827,127.341294 C257.769705,129.324599 258,131.385405 258,133.5 C258,143.288055 253.065721,151.923647 245.548901,157.055039 C236.837439,174.791635 218.594428,187 197.5,187 C195.53669,187 193.59808,186.894245 191.689556,186.688122 C185.384257,191.881303 177.306334,195 168.5,195 C164.481965,195 160.61557,194.350752 157,193.151442 L157,180.610951 C174.530782,172.282984 187.048193,155.114792 188.791419,134.867187 C194.569129,134.002364 199,129.018625 199,123 L199,110 C199,104.054007 194.675427,99.1180731 189,98.1659169 L189,92 C189,86.5585666 188.223906,81.2983998 186.776371,76.3241528 L188.153157,89.1947292 L176.812614,65.1945789 L131.676809,45.6707349 L101.563146,56.2283606 L80.0648273,76.419385 L80.0203173,73.8104172 Z" id="path-7"></path>
        <path d="M80.4646192,16.3941179 C84.3801509,8.45869677 92.552602,3 102,3 C110.919691,3 118.702887,7.86591082 122.839921,15.0880638 C123.050197,15.0306504 123.271519,15 123.5,15 L131.5,15 C132.880712,15 134,16.1192881 134,17.5 C134,18.8807119 132.880712,20 131.5,20 L124.963126,20 C125.637355,22.2145921 126,24.5649459 126,27 C126,40.254834 115.254834,51 102,51 C88.745166,51 78,40.254834 78,27 C78,25.5781066 78.1236513,24.1850936 78.3607874,22.8311273 C78.2762458,18.4553035 74.9135957,15 70.8624171,15 C67.1256697,15 63.9747186,17.9397535 63.4417635,21.8300629 C63.8073299,23.4951922 64,25.2250958 64,27 C64,40.254834 53.254834,51 40,51 C26.745166,51 16,40.254834 16,27 C16,24.5649459 16.3626451,22.2145921 17.0368738,20 L10.5,20 C9.11928813,20 8,18.8807119 8,17.5 C8,16.1192881 9.11928813,15 10.5,15 L18.5,15 C18.728481,15 18.9498033,15.0306504 19.1600793,15.0880638 C23.2971127,7.86591082 31.0803092,3 40,3 C49.3521568,3 57.4549431,8.34919095 61.415666,16.15488 C63.4929212,13.0392725 66.9494432,11 70.8624171,11 C74.8746823,11 78.4070368,13.1440781 80.4646192,16.3941179 Z M40,47 C51.045695,47 60,38.045695 60,27 C60,15.954305 51.045695,7 40,7 C28.954305,7 20,15.954305 20,27 C20,38.045695 28.954305,47 40,47 Z M102,47 C113.045695,47 122,38.045695 122,27 C122,15.954305 113.045695,7 102,7 C90.954305,7 82,15.954305 82,27 C82,38.045695 90.954305,47 102,47 Z" id="path-9"></path>
        <filter x="-0.8%" y="-2.1%" width="101.6%" height="108.3%" filterUnits="objectBoundingBox" id="filter-10">
            <feOffset dx="0" dy="2" in="SourceAlpha" result="shadowOffsetOuter1"></feOffset>
            <feColorMatrix values="0 0 0 0 0   0 0 0 0 0   0 0 0 0 0  0 0 0 0.1 0" type="matrix" in="shadowOffsetOuter1"></feColorMatrix>
        </filter>
    </defs>
    <g id="Introduction" stroke="none" stroke-width="1" fill="none" fill-rule="evenodd">
        <g id="Intro" transform="translate(-1159.000000, -555.000000)">
            <g id="middle" transform="translate(199.000000, 555.000000)">
                <g id="Avataaar/Default" transform="translate(960.000000, 0.000000)">
                    <g id="Body" stroke-width="1" fill-rule="evenodd" transform="translate(32.000000, 36.000000)">
                        <mask id="mask-2" fill="white">
                            <use xlink:href="#path-1"></use>
                        </mask>
                        <use fill="#D0C6AC" xlink:href="#path-1"></use>
                        <g id="Skin/👶🏾-02-Dark-Brown" mask="url(#mask-2)" fill="#AE5D29">
                            <g transform="translate(-32.000000, 0.000000)" id="Color">
                                <rect x="0" y="0" width="264" height="244"></rect>
                            </g>
                        </g>
                        <path d="M156,94 L156,102 C156,132.927946 130.927946,158 100,158 C69.072054,158 44,132.927946 44,102 L44,94 C44,124.927946 69.072054,150 100,150 C130.927946,150 156,124.927946 156,94 Z" id="Neck-Shadow" fill-opacity="0.100000001" fill="#000000" mask="url(#mask-2)"></path>
                    </g>
                    <g id="Clothing/Hoodie" transform="translate(0.000000, 170.000000)">
                        <mask id="mask-4" fill="white">
                            <use xlink:href="#path-3"></use>
                        </mask>
                        <use id="Hoodie" fill="#B7C1DB" fill-rule="evenodd" xlink:href="#path-3"></use>
                        <g id="Color/Palette/Blue-01" mask="url(#mask-4)" fill="#65C9FF" fill-rule="evenodd">
                            <rect id="🖍Color" x="0" y="0" width="264" height="110"></rect>
                        </g>
                        <path d="M102,61.7390531 L102,110 L95,110 L95,58.1502625 C97.2037542,59.4600576 99.5467694,60.6607878 102,61.7390531 Z M169,58.1502625 L169,98.5 C169,100.432997 167.432997,102 165.5,102 C163.567003,102 162,100.432997 162,98.5 L162,61.7390531 C164.453231,60.6607878 166.796246,59.4600576 169,58.1502625 Z" id="Straps" fill="#F4F4F4" fill-rule="evenodd" mask="url(#mask-4)"></path>
                        <path d="M131.989815,67.9999995 C98.5309773,67.9967574 65.5,52.0180096 65.5,32.3076923 C65.5,21.2428847 75.9093095,15.5711782 90.9601329,12.7243537 C81.8750795,16.0744598 76,21.7060546 76,31.0769231 C76,51.4665186 103.814501,67.9960167 131.989815,67.9999993 Z M173.039867,12.7243537 C188.09069,15.5711782 198.5,21.2428847 198.5,32.3076923 C198.5,52.0180096 165.469023,67.9967574 132.010185,67.9999995 C160.185499,67.9960167 188,51.4665186 188,31.0769231 C188,21.7060546 182.124921,16.0744598 173.039867,12.7243537 Z" id="Shadow" fill-opacity="0.16" fill="#000000" fill-rule="evenodd" mask="url(#mask-4)"></path>
                    </g>
                    <g id="Face" stroke-width="1" fill-rule="evenodd" transform="translate(76.000000, 82.000000)" fill="#000000">
                        <g id="Mouth/Twinkle" transform="translate(2.000000, 52.000000)" fill-opacity="0.599999964" fill-rule="nonzero">
                            <path d="M40,16 C40,21.371763 46.1581544,25 54,25 C61.8418456,25 68,21.371763 68,16 C68,14.8954305 67.050301,14 66,14 C64.7072748,14 64.1302316,14.9051755 64,16 C62.7575758,18.9378973 59.6832595,20.7163149 54,21 C48.3167405,20.7163149 45.2424242,18.9378973 44,16 C43.8697684,14.9051755 43.2927252,14 42,14 C40.949699,14 40,14.8954305 40,16 Z" id="Mouth"></path>
                        </g>
                        <g id="Nose/Default" transform="translate(28.000000, 40.000000)" fill-opacity="0.16">
                            <path d="M16,8 C16,12.418278 21.372583,16 28,16 C34.627417,16 40,12.418278 40,8" id="Nose"></path>
                        </g>
                        <g id="Eyes/Closed-😌" transform="translate(0.000000, 8.000000)" fill-opacity="0.599999964">
                            <path d="M16.1601674,32.4473116 C18.006676,28.648508 22.1644225,26 26.9975803,26 C31.8136766,26 35.9591217,28.629842 37.8153518,32.4071242 C38.3667605,33.5291977 37.5821037,34.4474817 36.790607,33.7670228 C34.3395063,31.6597833 30.8587163,30.3437884 26.9975803,30.3437884 C23.2572061,30.3437884 19.8737584,31.5787519 17.4375392,33.5716412 C16.5467928,34.3002944 15.6201012,33.5583844 16.1601674,32.4473116 Z" id="Closed-Eye" transform="translate(27.000000, 30.000000) scale(1, -1) translate(-27.000000, -30.000000) "></path>
                            <path d="M74.1601674,32.4473116 C76.006676,28.648508 80.1644225,26 84.9975803,26 C89.8136766,26 93.9591217,28.629842 95.8153518,32.4071242 C96.3667605,33.5291977 95.5821037,34.4474817 94.790607,33.7670228 C92.3395063,31.6597833 88.8587163,30.3437884 84.9975803,30.3437884 C81.2572061,30.3437884 77.8737584,31.5787519 75.4375392,33.5716412 C74.5467928,34.3002944 73.6201012,33.5583844 74.1601674,32.4473116 Z" id="Closed-Eye" transform="translate(85.000000, 30.000000) scale(1, -1) translate(-85.000000, -30.000000) "></path>
                        </g>
                        <g id="Eyebrow/Outline/Default" fill-opacity="0.599999964">
                            <g id="I-Browse" transform="translate(12.000000, 6.000000)">
                                <path d="M3.63024536,11.1585767 C7.54515501,5.64986673 18.2779197,2.56083721 27.5230268,4.83118046 C28.5957248,5.0946055 29.6788665,4.43856013 29.9422916,3.36586212 C30.2057166,2.2931641 29.5496712,1.21002236 28.4769732,0.94659732 C17.7403633,-1.69001789 5.31209962,1.88699832 0.369754639,8.84142326 C-0.270109626,9.74178291 -0.0589363917,10.9903811 0.84142326,11.6302454 C1.74178291,12.2701096 2.9903811,12.0589364 3.63024536,11.1585767 Z" id="Eyebrow" fill-rule="nonzero"></path>
                                <path d="M61.6302454,11.1585767 C65.545155,5.64986673 76.2779197,2.56083721 85.5230268,4.83118046 C86.5957248,5.0946055 87.6788665,4.43856013 87.9422916,3.36586212 C88.2057166,2.2931641 87.5496712,1.21002236 86.4769732,0.94659732 C75.7403633,-1.69001789 63.3120996,1.88699832 58.3697546,8.84142326 C57.7298904,9.74178291 57.9410636,10.9903811 58.8414233,11.6302454 C59.7417829,12.2701096 60.9903811,12.0589364 61.6302454,11.1585767 Z" id="Eyebrow" fill-rule="nonzero" transform="translate(73.000154, 6.039198) scale(-1, 1) translate(-73.000154, -6.039198) "></path>
                            </g>
                        </g>
                    </g>
                    <g id="Top" stroke-width="1" fill-rule="evenodd">
                        <mask id="mask-6" fill="white">
                            <use xlink:href="#path-5"></use>
                        </mask>
                        <g id="Mask"></g>
                        <g id="Top/Long-Hair/Fro-+-Band" mask="url(#mask-6)">
                            <g transform="translate(-1.000000, 0.000000)">
                                <mask id="mask-8" fill="white">
                                    <use xlink:href="#path-7"></use>
                                </mask>
                                <use id="Hair" stroke="none" fill="#314756" fill-rule="evenodd" xlink:href="#path-7"></use>
                                <g id="Color/Hair/Black" stroke="none" fill="none" mask="url(#mask-8)" fill-rule="evenodd">
                                    <g transform="translate(1.000000, 0.000000)" fill="#2C1B18" id="Color">
                                        <rect x="0" y="0" width="264" height="280"></rect>
                                    </g>
                                </g>
                                <path d="M76.6313898,98.975 C76.2155465,96.423245 76,93.8109442 76,91.1521739 C76,62.3493236 101.295912,39 132.5,39 C163.704088,39 189,62.3493236 189,91.1521739 C189,93.8109442 188.784453,96.423245 188.36861,98.975 C184.279562,73.883217 160.823662,54.6456522 132.5,54.6456522 C104.176338,54.6456522 80.7204382,73.883217 76.6313898,98.975 Z" id="Band" stroke="none" fill="#92D9FF" fill-rule="evenodd"></path>
                                <g id="Facial-Hair/-Blank" stroke="none" fill="none" transform="translate(49.000000, 72.000000)"></g>
                                <g id="Top/_Resources/Round" stroke="none" fill="none" transform="translate(62.000000, 85.000000)">
                                    <g id="Lennon-Glasses">
                                        <use fill="black" fill-opacity="1" filter="url(#filter-10)" xlink:href="#path-9"></use>
                                        <use fill="#252C2F" fill-rule="evenodd" xlink:href="#path-9"></use>
                                    </g>
                                </g>
                            </g>
                        </g>
                    </g>
                </g>
            </g>
        </g>
    </g>
</svg>

<svg width="260" height="280" xmlns="http://www.w3.org/2000/svg" xmlns:xlink="http://www.w3.org/1999/xlink"><defs><path d="M124 144.611V163h4c39.765 0 72 32.235 72 72v9H0v-9c0-39.765 32.235-72 72-72h4v-18.389c-17.237-8.189-29.628-24.924-31.695-44.73C38.48 99.058 34 94.052 34 88V74c0-5.946 4.325-10.882 10-11.834V56c0-30.928 25.072-56 56-56s56 25.072 56 56v6.166c5.675.952 10 5.888 10 11.834v14c0 6.052-4.48 11.058-10.305 11.881-2.067 19.806-14.458 36.541-31.695 44.73z" id="a"/><path d="M108 13.07V32c0 13.255 10.745 24 24 24s24-10.745 24-24V13.07c17.919 2.006 31.72 7.482 31.996 21.575C213.854 45.568 232 71.165 232 100.999V110H32v-9c0-29.835 18.146-55.432 44.004-66.355.276-14.093 14.077-19.57 31.996-21.574z" id="c"/><path id="e" d="M0 0h264v280H0z"/><path d="M80.02 73.81A55.925 55.925 0 0077 92v6.166c-5.675.952-10 5.888-10 11.834v13c0 6.019 4.43 11.002 10.209 11.867 1.743 20.248 14.26 37.416 31.791 45.744v10.944A36.36 36.36 0 0193.5 195a36.35 36.35 0 01-23.19-8.312 54.1 54.1 0 01-5.81.312c-21.094 0-39.337-12.208-48.049-29.945C8.934 151.924 4 143.288 4 133.5c0-2.115.23-4.175.667-6.159A57.875 57.875 0 011 107c0-12.756 4.118-24.55 11.097-34.127A28.882 28.882 0 0112 70.5c0-11.297 6.573-21.06 16.104-25.67 8.433-18.128 26.454-30.894 47.546-31.78A28.406 28.406 0 0195.5 5c2.327 0 4.589.279 6.754.805C111.776 2.058 122.148 0 133 0c10.346 0 20.255 1.87 29.408 5.292A28.74 28.74 0 01166.5 5a28.406 28.406 0 0119.85 8.05c21.092.886 39.113 13.652 47.546 31.78C243.426 49.44 250 59.203 250 70.5c0 .8-.033 1.59-.097 2.373C256.882 82.45 261 94.243 261 107a57.875 57.875 0 01-3.667 20.341c.437 1.984.667 4.044.667 6.159 0 9.788-4.934 18.424-12.451 23.555C236.837 174.792 218.594 187 197.5 187a54.1 54.1 0 01-5.81-.312A36.35 36.35 0 01168.5 195c-4.018 0-7.884-.65-11.5-1.849v-12.54c17.53-8.328 30.048-25.496 31.791-45.744C194.57 134.002 199 129.02 199 123v-13c0-5.946-4.325-10.882-10-11.834V92c0-5.441-.776-10.702-2.224-15.676l1.377 12.87-11.34-24-45.136-19.523-30.114 10.557L80.065 76.42l-.045-2.609z" id="g"/><path d="M80.465 16.394C84.38 8.46 92.553 3 102 3c8.92 0 16.703 4.866 20.84 12.088.21-.057.432-.088.66-.088h8a2.5 2.5 0 110 5h-6.537A23.998 23.998 0 01126 27c0 13.255-10.745 24-24 24S78 40.255 78 27c0-1.422.124-2.815.36-4.169C78.277 18.455 74.915 15 70.863 15c-3.736 0-6.887 2.94-7.42 6.83.365 1.665.558 3.395.558 5.17 0 13.255-10.745 24-24 24S16 40.255 16 27c0-2.435.363-4.785 1.037-7H10.5a2.5 2.5 0 110-5h8c.228 0 .45.03.66.088C23.297 7.866 31.08 3 40 3c9.352 0 17.455 5.35 21.416 13.155C63.493 13.039 66.949 11 70.862 11c4.013 0 7.545 2.144 9.603 5.394zM40 47c11.046 0 20-8.954 20-20S51.046 7 40 7s-20 8.954-20 20 8.954 20 20 20zm62 0c11.046 0 20-8.954 20-20s-8.954-20-20-20-20 8.954-20 20 8.954 20 20 20z" id="j"/><filter x="-.8%" y="-2.1%" width="101.6%" height="108.3%" filterUnits="objectBoundingBox" id="i"><feOffset dy="2" in="SourceAlpha" result="shadowOffsetOuter1"/><feColorMatrix values="0 0 0 0 0 0 0 0 0 0 0 0 0 0 0 0 0 0 0.1 0" in="shadowOffsetOuter1"/></filter></defs><g fill="none" fill-rule="evenodd"><g transform="translate(32 36)"><mask id="b" fill="#fff"><use xlink:href="#a"/></mask><use fill="#D0C6AC" xlink:href="#a"/><g mask="url(#b)" fill="#AE5D29"><path d="M-32 0h264v244H-32z"/></g><path d="M156 94v8c0 30.928-25.072 56-56 56s-56-25.072-56-56v-8c0 30.928 25.072 56 56 56s56-25.072 56-56z" fill-opacity=".1" fill="#000" mask="url(#b)"/></g><g transform="translate(0 170)"><mask id="d" fill="#fff"><use xlink:href="#c"/></mask><use fill="#B7C1DB" xlink:href="#c"/><g mask="url(#d)" fill="#65C9FF"><path d="M0 0h264v110H0z"/></g><path d="M102 61.74V110h-7V58.15a64.54 64.54 0 007 3.59zm67-3.59V98.5a3.5 3.5 0 11-7 0V61.74a64.54 64.54 0 007-3.59z" fill="#F4F4F4" mask="url(#d)"/><path d="M131.99 68C98.53 67.997 65.5 52.018 65.5 32.308c0-11.065 10.41-16.737 25.46-19.584C81.875 16.074 76 21.706 76 31.077c0 20.39 27.815 36.919 55.99 36.923zm41.05-55.276c15.05 2.847 25.46 8.519 25.46 19.584 0 19.71-33.031 35.689-66.49 35.692C160.185 67.996 188 51.467 188 31.077c0-9.37-5.875-15.003-14.96-18.353z" fill-opacity=".16" fill="#000" mask="url(#d)"/></g><g fill="#000"><path d="M118 150c0 5.372 6.158 9 14 9s14-3.628 14-9c0-1.105-.95-2-2-2-1.293 0-1.87.905-2 2-1.242 2.938-4.317 4.716-10 5-5.683-.284-8.758-2.062-10-5-.13-1.095-.707-2-2-2-1.05 0-2 .895-2 2z" fill-opacity=".6" fill-rule="nonzero"/><path d="M120 130c0 4.418 5.373 8 12 8s12-3.582 12-8" fill-opacity=".16"/><g fill-opacity=".6"><path d="M92.16 117.553c1.847 3.798 6.004 6.447 10.838 6.447 4.816 0 8.961-2.63 10.817-6.407.552-1.122-.233-2.04-1.024-1.36-2.451 2.107-5.932 3.423-9.793 3.423-3.74 0-7.124-1.235-9.56-3.228-.891-.728-1.818.014-1.278 1.125zM150.16 117.553c1.847 3.798 6.004 6.447 10.838 6.447 4.816 0 8.961-2.63 10.817-6.407.552-1.122-.233-2.04-1.024-1.36-2.451 2.107-5.932 3.423-9.793 3.423-3.74 0-7.124-1.235-9.56-3.228-.891-.728-1.818.014-1.278 1.125z"/></g><g fill-rule="nonzero" fill-opacity=".6"><path d="M91.63 99.159c3.915-5.51 14.648-8.598 23.893-6.328a2 2 0 00.954-3.884c-10.737-2.637-23.165.94-28.107 7.894a2 2 0 003.26 2.318zM172.37 99.159c-3.915-5.51-14.648-8.598-23.893-6.328a2 2 0 01-.954-3.884c10.737-2.637 23.165.94 28.108 7.894a2 2 0 01-3.26 2.318z"/></g></g><g><mask id="f" fill="#fff"><use xlink:href="#e"/></mask><g mask="url(#f)"><g transform="translate(-1)"><mask id="h" fill="#fff"><use xlink:href="#g"/></mask><use fill="#314756" xlink:href="#g"/><g mask="url(#h)"><path d="M1 0h264v280H1z" fill="#2C1B18"/></g><path d="M76.631 98.975A48.603 48.603 0 0176 91.152C76 62.35 101.296 39 132.5 39S189 62.35 189 91.152c0 2.659-.216 5.271-.631 7.823-4.09-25.092-27.545-44.33-55.869-44.33-28.324 0-51.78 19.238-55.869 44.33z" fill="#92D9FF"/><g transform="translate(62 85)"><use fill="#000" filter="url(#i)" xlink:href="#j"/><use fill="#252C2F" xlink:href="#j"/></g></g></g></g></g></svg>
